img/icons/mime/large/dia.svg

<svg height="140.9" width="125.3" xmlns="http://www.w3.org/2000/svg" xmlns:xlink="http://www.w3.org/1999/xlink"><linearGradient id="a" gradientTransform="matrix(.939922 0 0 .896911 -12.081733 -3.352424)" gradientUnits="userSpaceOnUse" x1="24" x2="73" y1="16.4" y2="73.4"><stop offset="0" stop-color="#fff"/><stop offset="1" stop-color="#fff" stop-opacity="0"/></linearGradient><rect fill="none" height="133.4" rx="22.9" stroke="#000" stroke-linejoin="round" stroke-opacity=".5" stroke-width="7.5" width="117.8" x="3.8" y="3.8"/><rect fill="#bab5ab" height="133.4" rx="22.9" stroke="#000" stroke-width="3.8" width="117.8" x="3.6" y="3.7"/><path d="m100.3 132.6h-75.7c-11.6 0-17.3-5.7-17.3-17.4 0 0 27.6-66.5 110.4-76.6v76.6c0 11.7-5.7 17.4-17.4 17.4z" fill="#fff" fill-opacity=".3"/><path d="m94.3 38.2-69.1 43.2-9.6-14.2 69.1-43.2 23.6-4.7z" fill="#a20000" stroke="#000" stroke-width="2.4"/><path d="m97.5 32.2-5.8-8.5 17-4.6z" stroke="#000" stroke-width="2.4"/><path d="m85.7 25.4-67.3 42.1 2.4 4 66.8-41.8z" fill="#fff" fill-opacity=".7"/><path d="m90.7 33.3-67.5 41.9 2.5 4 66.9-41.6z" fill="#4e4e4a" fill-opacity=".3"/><path d="m66.9 125.1 13.3-31.1h6.9l13.3 31.1h-7.1l-3.1-7.6h-13l-3.1 7.6zm16.8-23.5-4.6 11h9.1zm-21.5 23.5h-6.7v-31.1h6.7zm-39.3-31.1h16.6c4.1 0 7.3 1.3 9.5 4 2.2 2.6 3.3 6.5 3.3 11.5s-1.1 8.8-3.3 11.5c-2.1 2.7-5.3 4.1-9.5 4.1h-16.6zm6.5 25.8h7.9c2.6 0 4.5-.9 5.8-2.6 1.2-1.7 1.9-4.2 1.9-7.7 0-3.4-.6-6-1.8-7.7-1.2-1.6-3.2-2.5-5.9-2.5h-7.9z" fill="#fff"/><path d="m67.6 125.8 13.3-31.2h6.8l13.4 31.2h-7.2l-3-7.6h-13l-3.2 7.6zm16.7-23.6-4.5 11.1h9.1zm-21.4 23.6h-6.7v-31.2h6.7zm-39.3-31.2h16.5c4.2 0 7.4 1.4 9.6 4 2.2 2.7 3.3 6.6 3.3 11.6s-1.1 8.8-3.3 11.5-5.4 4.1-9.6 4.1h-16.5zm6.5 25.8h7.9c2.6 0 4.5-.8 5.8-2.5 1.2-1.7 1.9-4.3 1.9-7.7s-.6-6-1.8-7.7-3.2-2.5-5.9-2.5h-7.9z"/><path d="m111.8 16.7v74.4m0-74.4h-99.2" fill="none" stroke="#000" stroke-linecap="round" stroke-width="1.9"/><path d="m24.6 7.3h75.7c11.7 0 17.4 5.7 17.4 17.4 0 0-79.3.9-110.4 91.3v-91.3c0-10.3 7-17.4 17.3-17.4z" fill="url(#a)"/></svg>

<svg xmlns:svg="http://www.w3.org/2000/svg" xmlns="http://www.w3.org/2000/svg" xmlns:xlink="http://www.w3.org/1999/xlink" id="svg1" width="125.3" height="140.9" version="1">
<style>
.s0{
  stop-color:#46a046;
  stop-opacity:1;
}
.s1{
  stop-color:#df421e;
  stop-opacity:1;
}
.s2{
  stop-color:#ada7c8;
  stop-opacity:1;
}
.s3{
  stop-color:#eed680;
  stop-opacity:1;
}
.s4{
  fill:none;
  stroke-linecap:round;
  stroke-width:1.9;
  stroke:#000;
}

</style>  <metadata id="metadata15"/>
  <defs id="defs3">
    <linearGradient id="linearGradient3587">
      <stop id="stop3589" offset="0" style="stop-color:#efe0cd;stop-opacity:0.6"/>
      <stop id="stop3591" offset="1" style="stop-color:#cececd;stop-opacity:0.2"/>
    </linearGradient>
    <linearGradient id="linearGradient2832">
      <stop offset="0" id="stop2834" style="stop-color:#ffffff;stop-opacity:1"/>
      <stop offset="1" id="stop2836" style="stop-color:#ffffff;stop-opacity:0"/>
    </linearGradient>
    <linearGradient id="linearGradient839">
      <stop offset="0" id="stop840" class="s0"/>
      <stop offset="0.4" id="stop841" class="s1"/>
      <stop offset="0.7" id="stop842" class="s2"/>
      <stop offset="1" id="stop843" class="s3"/>
    </linearGradient>
    <linearGradient xlink:href="#linearGradient839" id="linearGradient836" x1="0" y1="0.5" x2="1" y2="0.5"/>
    <linearGradient xlink:href="#linearGradient2832" id="linearGradient2830" gradientTransform="matrix(0.939922,0,0,0.896911,-12.081733,-3.3524237)" x1="24" y1="16.4" x2="73" y2="73.4" gradientUnits="userSpaceOnUse"/>
    <linearGradient y2="93.7" x2="107.3" y1="124.3" x1="111.3" gradientTransform="matrix(0.777129,0,0,0.894628,-162.4688,12.76856)" gradientUnits="userSpaceOnUse" id="linearGradient1407" xlink:href="#linearGradient1700"/>
    <linearGradient y2="93.7" x2="107.3" y1="124.3" x1="111.3" gradientTransform="matrix(0.777129,0,0,0.894628,-2.922179,10.43077)" gradientUnits="userSpaceOnUse" id="linearGradient1390" xlink:href="#linearGradient1700"/>
    <linearGradient id="linearGradient1350">
      <stop offset="0" id="stop1352" class="s0"/>
      <stop offset="0.4" id="stop1354" class="s1"/>
      <stop offset="0.7" id="stop1356" class="s2"/>
      <stop offset="1" id="stop1358" class="s3"/>
    </linearGradient>
    <linearGradient xlink:href="#linearGradient839" id="linearGradient1360" x1="0" y1="0.5" x2="1" y2="0.5"/>
    <linearGradient xlink:href="#linearGradient1700" id="linearGradient1362" gradientTransform="matrix(0.870364,0,0,1.001961,4.612015,4.886798)" x1="123.5" y1="121.7" x2="128.7" y2="88" gradientUnits="userSpaceOnUse"/>
    <linearGradient xlink:href="#linearGradient839" id="linearGradient1363" x1="0" y1="0.5" x2="1" y2="0.5"/>
    <linearGradient id="linearGradient1353">
      <stop offset="0" id="stop1355" class="s0"/>
      <stop offset="0.4" id="stop1357" class="s1"/>
      <stop offset="0.7" id="stop1359" class="s2"/>
      <stop offset="1" id="stop1361" class="s3"/>
    </linearGradient>
    <linearGradient id="linearGradient1700">
      <stop offset="0" id="stop1701" style="stop-color:#000000;stop-opacity:0.7"/>
      <stop offset="1" id="stop1702" style="stop-color:#000000;stop-opacity:0"/>
    </linearGradient>
    <linearGradient y2="0.5" x2="1" y1="0.5" x1="0" id="linearGradient1427" xlink:href="#linearGradient839"/>
    <linearGradient id="linearGradient1417">
      <stop id="stop1419" offset="0" class="s0"/>
      <stop id="stop1421" offset="0.4" class="s1"/>
      <stop id="stop1423" offset="0.7" class="s2"/>
      <stop id="stop1425" offset="1" class="s3"/>
    </linearGradient>
    <linearGradient xlink:href="#linearGradient839" id="linearGradient1381" x1="0" y1="0.5" x2="1" y2="0.5"/>
    <linearGradient id="linearGradient1371">
      <stop offset="0" id="stop1373" class="s0"/>
      <stop offset="0.4" id="stop1375" class="s1"/>
      <stop offset="0.7" id="stop1377" class="s2"/>
      <stop offset="1" id="stop1379" class="s3"/>
    </linearGradient>
    <linearGradient y2="0.5" x2="1" y1="0.5" x1="0" id="linearGradient1374" xlink:href="#linearGradient839"/>
    <linearGradient id="linearGradient1364">
      <stop id="stop1366" offset="0" class="s0"/>
      <stop id="stop1368" offset="0.4" class="s1"/>
      <stop id="stop1370" offset="0.7" class="s2"/>
      <stop id="stop1372" offset="1" class="s3"/>
    </linearGradient>
    <linearGradient spreadMethod="reflect" y2="0.5" x2="0.4" y1="0.8" x1="0.7" id="linearGradient674" xlink:href="#linearGradient869"/>
    <linearGradient y2="0.5" x2="1" y1="0.5" x1="0" id="linearGradient1410" xlink:href="#linearGradient839"/>
    <linearGradient id="linearGradient1400">
      <stop id="stop1402" offset="0" class="s0"/>
      <stop id="stop1404" offset="0.4" class="s1"/>
      <stop id="stop1406" offset="0.7" class="s2"/>
      <stop id="stop1408" offset="1" class="s3"/>
    </linearGradient>
    <linearGradient spreadMethod="reflect" y2="0.3" x2="0.2" y1="0.5" x1="0.4" id="linearGradient904" xlink:href="#linearGradient907"/>
    <linearGradient id="linearGradient866">
      <stop id="stop867" offset="0" style="stop-color:#ffff00;stop-opacity:1"/>
      <stop id="stop901" offset="0.4" style="stop-color:#ffea00;stop-opacity:1"/>
      <stop id="stop868" offset="1" style="stop-color:#ffd600;stop-opacity:1"/>
    </linearGradient>
    <linearGradient id="linearGradient869">
      <stop id="stop870" offset="0" style="stop-color:#7590ae;stop-opacity:1"/>
      <stop id="stop912" offset="0.9" style="stop-color:#89a4c0;stop-opacity:1"/>
      <stop id="stop871" offset="1" style="stop-color:#9db8d2;stop-opacity:1"/>
    </linearGradient>
    <linearGradient id="linearGradient907">
      <stop id="stop908" offset="0" class="s3"/>
      <stop id="stop911" offset="0.3" style="stop-color:#dfb546;stop-opacity:1"/>
      <stop id="stop910" offset="1" style="stop-color:#d1940c;stop-opacity:1"/>
    </linearGradient>
  </defs>
  <rect id="rect834" width="117.8" height="133.4" x="3.8" y="3.8" ry="22.9" rx="22.9" style="fill:none;stroke-linejoin:round;stroke-opacity:0.5;stroke-width:7.5;stroke:#000"/>
  <rect id="rect828" width="117.8" height="133.4" x="3.6" y="3.7" ry="22.9" rx="22.9" style="fill:#bab5ab;stroke-width:3.8;stroke:#000"/>
  <path d="M100.3 132.6L24.6 132.6C13 132.6 7.3 126.9 7.3 115.2 7.3 115.2 34.9 48.7 117.7 38.6L117.7 115.2C117.7 126.9 112 132.6 100.3 132.6z" id="path2838" style="fill-opacity:0.3;fill:#fff"/>
  <path id="path572" d="M94.3 38.2L25.2 81.4 15.6 67.2 84.7 24 108.3 19.3 94.3 38.2z" style="fill:#a20000;font-size:12;stroke-width:2.4;stroke:#000"/>
  <path id="path573" d="M97.5 32.2L97.5 32.2 91.7 23.7 91.7 23.7 108.7 19.1 97.5 32.2z" style="font-size:12;stroke-width:2.4;stroke:#000"/>
  <path id="path837" d="M85.7 25.4L18.4 67.5 20.8 71.5 87.6 29.7 85.7 25.4z" style="fill-opacity:0.7;fill:#fff;stroke-width:1"/>
  <path id="path838" d="M90.7 33.3L23.2 75.2 25.7 79.2 92.6 37.6 90.7 33.3z" style="fill-opacity:0.3;fill:#4e4e4a;stroke-width:1"/>
  <path id="path1435" d="M66.9 125.1L80.2 94 87.1 94 100.4 125.1 93.3 125.1 90.2 117.5 77.2 117.5 74.1 125.1 66.9 125.1zM83.7 101.6L79.1 112.6 88.2 112.6 83.7 101.6zM62.2 125.1L55.5 125.1 55.5 94 62.2 94 62.2 125.1zM22.9 94L39.5 94C43.6 94 46.8 95.3 49 98 51.2 100.6 52.3 104.5 52.3 109.5 52.3 114.5 51.2 118.3 49 121 46.9 123.7 43.7 125.1 39.5 125.1L22.9 125.1 22.9 94zM29.4 119.8L37.3 119.8C39.9 119.8 41.8 118.9 43.1 117.2 44.3 115.5 45 113 45 109.5 45 106.1 44.4 103.5 43.2 101.8 42 100.2 40 99.3 37.3 99.3L29.4 99.3 29.4 119.8z" style="fill:#fff;font-family:Trek;font-size:40;stroke-width:1"/>
  <path id="path853" d="M67.6 125.8L80.9 94.6 87.7 94.6 101.1 125.8 93.9 125.8 90.9 118.2 77.9 118.2 74.7 125.8 67.6 125.8zM84.3 102.2L79.8 113.3 88.9 113.3 84.3 102.2zM62.9 125.8L56.2 125.8 56.2 94.6 62.9 94.6 62.9 125.8zM23.6 94.6L40.1 94.6C44.3 94.6 47.5 96 49.7 98.6 51.9 101.3 53 105.2 53 110.2 53 115.2 51.9 119 49.7 121.7 47.5 124.4 44.3 125.8 40.1 125.8L23.6 125.8 23.6 94.6zM30.1 120.4L38 120.4C40.6 120.4 42.5 119.6 43.8 117.9 45 116.2 45.7 113.6 45.7 110.2 45.7 106.8 45.1 104.2 43.9 102.5 42.7 100.8 40.7 100 38 100L30.1 100 30.1 120.4z" style="font-family:Trek;font-size:40;stroke-width:1"/>
  <path id="path851" d="M111.8 16.7L111.8 91.1M111.8 16.7L12.6 16.7" class="s4"/>
  <path d="M24.6 7.3L100.3 7.3C112 7.3 117.7 13 117.7 24.7 117.7 24.7 38.4 25.6 7.3 116L7.3 24.7C7.3 14.4 14.3 7.3 24.6 7.3z" id="rect2063" fill="url(#linearGradient2830)"/>
</svg>
